packages/xm_dkfz_net_site/Resources/Public/Icons/option.svg

<svg width="100%" height="100%" viewBox="0 0 20 20" version="1.1" xmlns="http://www.w3.org/2000/svg" xmlns:xlink="http://www.w3.org/1999/xlink" xml:space="preserve" xmlns:serif="http://www.serif.com/" style="fill-rule:evenodd;clip-rule:evenodd;stroke-linejoin:round;stroke-miterlimit:2;">
    <path d="M20,11.347L20,8.653C18.624,8.164 17.755,8.027 17.318,6.971L17.318,6.97C16.878,5.911 17.401,5.192 18.023,3.881L16.119,1.977C14.818,2.595 14.092,3.123 13.03,2.683L13.029,2.683C11.972,2.244 11.833,1.369 11.347,0L8.653,0C8.168,1.363 8.029,2.243 6.971,2.683L6.97,2.683C5.911,3.123 5.193,2.601 3.881,1.977L1.977,3.881C2.598,5.188 3.123,5.909 2.683,6.97C2.243,8.029 1.363,8.168 0,8.653L0,11.347C1.36,11.83 2.243,11.971 2.683,13.029C3.124,14.098 2.588,14.834 1.977,16.118L3.881,18.023C5.183,17.404 5.909,16.878 6.97,17.318L6.971,17.318C8.029,17.756 8.168,18.633 8.653,20L11.347,20C11.832,18.637 11.972,17.758 13.036,17.315L13.037,17.315C14.088,16.878 14.803,17.399 16.118,18.024L18.023,16.119C17.403,14.817 16.877,14.092 17.316,13.031C17.755,11.972 18.639,11.831 20,11.347ZM10,13.333C8.159,13.333 6.667,11.841 6.667,10C6.667,8.159 8.159,6.667 10,6.667C11.841,6.667 13.333,8.159 13.333,10C13.333,11.841 11.841,13.333 10,13.333Z" style="fill-rule:nonzero;"/>
</svg>

<svg xmlns="http://www.w3.org/2000/svg" xml:space="preserve" style="fill-rule:evenodd;clip-rule:evenodd;stroke-linejoin:round;stroke-miterlimit:2" viewBox="0 0 20 20"><path d="M20 11.35v-2.7c-1.38-.49-2.25-.62-2.68-1.68-.44-1.06.08-1.78.7-3.09l-1.9-1.9c-1.3.62-2.03 1.14-3.09.7-1.06-.44-1.2-1.31-1.68-2.68h-2.7c-.48 1.36-.62 2.24-1.68 2.68-1.06.44-1.78-.08-3.09-.7l-1.9 1.9c.62 1.3 1.14 2.03.7 3.09C2.24 8.03 1.36 8.17 0 8.65v2.7c1.36.48 2.24.62 2.68 1.68.44 1.07-.1 1.8-.7 3.09l1.9 1.9c1.3-.62 2.03-1.14 3.09-.7 1.06.44 1.2 1.31 1.68 2.68h2.7c.48-1.36.62-2.24 1.69-2.68 1.05-.44 1.76.08 3.08.7l1.9-1.9c-.62-1.3-1.14-2.03-.7-3.09.43-1.06 1.32-1.2 2.68-1.68Zm-10 1.98a3.33 3.33 0 1 1 0-6.66 3.33 3.33 0 0 1 0 6.66Z" style="fill-rule:nonzero"/></svg>
